!!!!SEGMENT: pl-wtm--r-265-m_moniuszko-stanislaw--piesn-pokutna.krn
!!!system-decoration: [(s1,s2,s3)]
!!!cenid: 18xx:2712
!!!COM: Moniuszko, Stanisław
!!!COM-rism: pe30008351
!!!CDT: 1819/05/05-1872/06/04
!!!CNT: Polish
!!!OTL: Pieśń pokutna
!!!PDT: 1866
!!!AGN:
!!!SMS-siglum: PL-Wtm
!!!SMS-shelfmark: R 265/M
!!!NIFC-rismID: 1001097954
!!!URL-scan: http://repozytorium.nifc.pl/skany/pl-wtm-nut--r265m
!!!ONB-nifc:
!!!SMS-variant:
!!!SMS-altvar:
**kern	**kern	**dynam	**kern	**text	**text
*part2	*part2	*part2	*part1	*part1	*part1
*staff3	*staff2	*	*staff1	*staff1	*staff1
*I"[Organ]	*I"[Organ]	*	*I"[Voice]	*	*
*clefF4	*clefG2	*	*clefG2	*	*
*k[]	*k[]	*	*k[]	*	*
*M4/4	*M4/4	*	*M4/4	*	*
*met(c)	*met(c)	*	*met(c)	*	*
*>[A,A1,A,A2]	*>[A,A1,A,A2]	*	*>[A,A1,A,A2]	*	*
=1	=1	=1	=1	=1	=1
*>A	*>A	*>A	*>A	*>A	*>A
!	!	!	!LO:TX:t=P:problem:all\right:global	!	!
!	!	!	!LO:TX:i:a:t=Lento.	!	!
*ped	*	*	*	*	*
!	!	!LO:DY:b:t=pp.:rj	!	!	!
1E 1AA	1c	pp	2r	.	.
.	.	.	4r	.	.
.	.	.	4a	Po-	.
=2!|:	=2!|:	=2!|:	=2!|:	=2!|:	=2!|:
*^	*^	*	*	*	*
*2\right	*2\right	*2\right	*2\right	*	*	*	*above
!	!	!	!	!	!LO:TX:t=P:problem:tekst z komentarzem "above" nad pięciolinią	!	!
(<2c 2A	1rGG	(>2a	1e	.	4a	-wsze-	na
.	.	.	.	.	8a	-dni	mnie
.	.	.	.	.	8a	chleb	Ty
2B 2E	.	2g#X	.	.	4b/	łza-	Oj-
.	.	.	.	.	8.b/	-mi	-cze
.	.	.	.	.	16b/	ob-	mi-
=3	=3	=3	=3	=3	=3	=3	=3
*	*^	*	*	*	*	*	*
*	*	*	*2\right	*	*	*2\right	*	*
2A	2AA	1rGG	2.a	2c	.	2.cc	-my-	-ło-
2F	2D	.	.	2d	.	.	.	.
.	.	.	4b	.	.	4b	-wam	-śći!
*	*v	*v	*	*	*	*	*	*
=4	=4	=4	=4	=4	=4	=4	=4
1E	1r	2a	2c	.	4.a	w mę-	wejrz
.	.	.	.	.	8a	-kach	na
.	.	2g#X	4B	.	4g#X	wi-	ser-
.	.	.	8eL	.	4b/	-jąc	-ce
.	.	.	8dJ	.	.	.	.
=5	=5	=5	=5	=5	=5	=5	=5
1A)	1rGG	2a	2c	.	[<2a	się,	me.
.	.	4ee	2e	.	8a]	.	.
.	.	.	.	.	8r	.	.
.	.	4cc)	.	.	8r	.	.
.	.	.	.	.	8a	na	O
*	*	*v	*v	*	*	*	*
!!LO:LB:g=original
=6	=6	=6	=6	=6	=6	=6
(<\2A	1rGG	(>2a 2c	.	4a\	ło-	Pa-
.	.	.	.	8a\	-żu	-nie!
.	.	.	.	16r	.	.
.	.	.	.	16a\	bez	Twej
2G\	.	2b 2d	.	4b	snu	bła-
.	.	.	.	8b	noc	-gam
.	.	.	.	8b	prze-	li-
=7	=7	=7	=7	=7	=7	=7
*	*^	*^	*	*	*	*
2.A	1D	1rGG	2dd	1f	.	2dd	-by-	-to-
.	.	.	4cc	.	.	8cc	-wam	-śći!
.	.	.	.	.	.	8r	.	.
4B	.	.	4b	.	.	4b	i	nad
=8	=8	=8	=8	=8	=8	=8	=8	=8
4c	1E	1rGG	(>2a)	2e	.	4a	wo-	do-
8BL	.	.	.	.	.	8a	-łam:	-lą
8AJ	.	.	.	.	.	8cc	U-	mą
4A	.	.	4.b	2d	.	4.b	-li-	zli-
4G#X	.	.	.	.	.	.	.	.
.	.	.	8e	.	.	8b	-tuj	-tuj
*	*v	*v	*	*	*	*	*	*
=9	=9	=9	=9	=9	=9	=9	=9
2A\)	1rGG	4e	2c	.	4a	się.	się.
.	.	4a	.	.	4r	.	.
2r	.	4cc)	2r	.	4r	.	.
.	.	4r	.	.	4ee	Jak	Po-
*v	*v	*	*	*	*	*	*
*	*v	*v	*	*	*	*
=10	=10	=10	=10	=10	=10
1r	1r	.	4dd	Hi-	-wsze-
.	.	.	8cc	-ob,	-dni
.	.	.	8b	jak	chleb
.	.	.	(<4a	Ła-	łza-
.	.	.	8g#X)	.	-mi
.	.	.	8a	-zarz,	ob-
!!LO:LB:g=original
=11	=11	=11	=11	=11	=11
*^	*	*	*	*	*
(>2A\ \2D#X	1r	(>2cc (<2f#X	.	2cc	smut-	-my-
8G#X\ 8E\)	.	8b 8B))	.	8b	-ny	-wam,
8r	.	8r	.	8r	.	.
4r	.	4r	.	4ee	me	na
*v	*v	*	*	*	*	*
=12	=12	=12	=12	=12	=12
1r	1r	.	4ee	łza-	ło-
.	.	.	8dd	-we	-żu
.	.	.	8cc	spój-	bez
.	.	.	8b\L	-rze-	snu
.	.	.	8a\J	.	.
.	.	.	8b	-nia	noc
.	.	.	8cc	Ku	prze-
=13	=13	=13	=13	=13	=13
*^	*^	*	*	*	*
(>2A\ \(<2D	1r	(>2f#X [<2d	2ryy	.	(>4.dd	To-	-by-
.	.	.	.	.	8cc)	-bie	.
8B\ 8G\))	.	8g 8d])	4ryy	.	8b	ślę,	-wam.
8r	.	8r	.	.	8r	.	.
4ryy	.	(>4g	[<4g	.	4g	i	Wejrz
=14	=14	=14	=14	=14	=14	=14	=14
2Fn\	1rGG	2a	4g]	.	4.a	łza-	na
.	.	.	8fL	.	.	.	.
.	.	.	8eJ	.	8a	-mi	mnie
[>\2G 2D\	.	4b	2f	.	4b/	hymn	Oj-
.	.	8aL	.	.	8a	mój	-cze
.	.	8gJ	.	.	8g	po-	mi-
=15	=15	=15	=15	=15	=15	=15	=15
*	*^	*	*	*	*	*	*
4G]	2C	1rGG	2cc	2e	.	2ee	-ku-	-ło-
2A	.	.	.	.	.	.	.	.
.	2D	.	2b	2f	.	8dd	-tny	-śći,
.	.	.	.	.	.	8r	.	.
4B	.	.	.	.	.	4b	o-	o
*	*v	*v	*	*	*	*	*	*
*	*	*v	*v	*	*	*	*
!!LO:LB:g=original
=16	=16	=16	=16	=16	=16	=16
4c\ 4E\	1r	4a 4e)	.	4a\	-cie-	Pa-
4r	.	4r	.	16bLL	-ka.	-nie!
.	.	.	.	16ccJJ	.	.
.	.	.	.	16ddLL	O	o
.	.	.	.	16eeJJ	.	.
4r	.	4r	.	4.ff;>	Pa-	Pa-
4E\;>	.	4g#X 4d 4B;>	.	.	.	.
.	.	.	.	8ee	-nie!	-nie!
=17	=17	=17	=17	=17	=17	=17
1E 1AA	1rGG	1a 1c	.	2.ee	zli-	zli-
.	.	.	.	4cc	-tuj	-tuj
=18	=18	=18	=18	=18	=18	=18
*	*^	*	*	*	*	*
(<2.C^>	1AA	1rGG	(>2.e^<	.	4a	się!	się!
.	.	.	.	.	4r	.	.
.	.	.	.	.	2r	.	.
4F	.	.	4d	.	.	.	.
*	*v	*v	*	*	*	*	*
=19	=19	=19	=19	=19	=19	=19
*>A1	*>A1	*>A1	*>A1	*>A1	*>A1	*>A1
!	!	!	!	!LO:TX:i:a:t=1ma	!	!
*ped	*	*	*	*	*	*
1E)	1AA	1c)	.	2.r	.	.
.	.	.	.	4a	Wejrz	.
*v	*v	*	*	*	*	*
=20:|!	=20:|!	=20:|!	=20:|!	=20:|!	=20:|!
*>A2	*>A2	*>A2	*>A2	*>A2	*>A2
!	!	!	!LO:TX:i:a:t=2da	!	!
1E 1AA;>	1c;>	.	1r;>	.	.
==	==	==	==	==	==
*-	*-	*-	*-	*-	*-
!!!system-decoration:{s1,(s2,s3)}
!!!RDF**kern: > = above
!!!RDF**kern: < = below
!!!ENC: Katarzyna Serwa
!!!END: 2021-07-19
!!!EED: Antoni Szymański
!!!EST: 2021-07-26
!!!ENC: Katarzyna Serwa
!!!END: 2021-07-19
